svgs/sharp-solid/f.svg

<svg xmlns="http://www.w3.org/2000/svg" viewBox="0 0 320 512"><!--! Font Awesome Pro 6.6.0 by @fontawesome - https://fontawesome.com License - https://fontawesome.com/license (Commercial License) Copyright 2024 Fonticons, Inc. --><path d="M32 32L0 32 0 64 0 224l0 32 0 32L0 448l0 32 64 0 0-32 0-160 160 0 32 0 0-64-32 0L64 224 64 96l224 0 32 0 0-64-32 0L32 32z"/></svg>

<svg xmlns="http://www.w3.org/2000/svg" viewBox="0 0 320 512"><!--! Font Awesome Pro 6.4.2 by @fontawesome - https://fontawesome.com License - https://fontawesome.com/license (Commercial License) Copyright 2023 Fonticons, Inc. --><path d="M32 32H0V64 224v32 32V448v32H64V448 288H224h32V224H224 64V96H288h32V32H288 32z"/></svg>
